assets/illustrations/multisize/40/multiple.svg

<?xml version="1.0" encoding="utf-8"?>
<!-- Generator: Adobe Illustrator 21.1.0, SVG Export Plug-In . SVG Version: 6.00 Build 0)  -->
<svg version="1.1" xmlns="http://www.w3.org/2000/svg" xmlns:xlink="http://www.w3.org/1999/xlink" x="0px" y="0px"
	 viewBox="0 0 40 40" enable-background="new 0 0 40 40" xml:space="preserve">
<g id="TEMPLATE" display="none">
	<g display="inline">
		<path fill="#D0D0D0" d="M40,0v40H0V0H40 M41-1h-1H0h-1v1v40v1h1h40h1v-1V0V-1L41-1z"/>
	</g>
	<g display="inline" opacity="0.1">
		<path fill="#FF3A6D" d="M38,2v36H2V2H38 M40,0H0v40h40V0L40,0z"/>
	</g>
</g>
<g id="ICONS">
	<polygon fill="#FFFFFF" points="30,37 7,37 7,6 21.1878,6 25,12 30,22.4998 	"/>
	<polygon fill="#FFFFFF" points="33,34 10,34 10,3 26,3 30,7 33,10 	"/>
	<path fill="#949494" d="M26,2h-1H9v3H6v33h25v-3h3V11v-1L26,2z M26,3.5l6.5,6.5H26V3.5z M30,37H7V6h2v29h21V37z M33,34h-2h-1H10V6
		V5V3h15v7v1h1h7V34z"/>
	
		<linearGradient id="SVGID_1_" gradientUnits="userSpaceOnUse" x1="-5657.9263" y1="10.5264" x2="-5683.4126" y2="43.1468" gradientTransform="matrix(-1 0 0 1 -5659 0)">
		<stop  offset="0" style="stop-color:#FFFFFF;stop-opacity:0"/>
		<stop  offset="0.2264" style="stop-color:#FCFCFC;stop-opacity:0.0226"/>
		<stop  offset="0.3626" style="stop-color:#F4F4F4;stop-opacity:0.0363"/>
		<stop  offset="0.475" style="stop-color:#E6E6E6;stop-opacity:0.0475"/>
		<stop  offset="0.5744" style="stop-color:#D1D1D1;stop-opacity:0.0574"/>
		<stop  offset="0.6652" style="stop-color:#B7B7B7;stop-opacity:0.0665"/>
		<stop  offset="0.7498" style="stop-color:#979797;stop-opacity:0.075"/>
		<stop  offset="0.8297" style="stop-color:#707070;stop-opacity:0.083"/>
		<stop  offset="0.9057" style="stop-color:#444444;stop-opacity:0.0906"/>
		<stop  offset="0.9761" style="stop-color:#121212;stop-opacity:0.0976"/>
		<stop  offset="1" style="stop-color:#000000;stop-opacity:0.1"/>
	</linearGradient>
	<polygon fill="url(#SVGID_1_)" points="9,5 9,35 30,35 31,35 31,38 6,38 6,5 	"/>
	<linearGradient id="SVGID_2_" gradientUnits="userSpaceOnUse" x1="6.8165" y1="3.706" x2="32.3023" y2="36.3264">
		<stop  offset="0" style="stop-color:#FFFFFF;stop-opacity:0"/>
		<stop  offset="0.2264" style="stop-color:#FCFCFC;stop-opacity:0.0226"/>
		<stop  offset="0.3626" style="stop-color:#F4F4F4;stop-opacity:0.0363"/>
		<stop  offset="0.475" style="stop-color:#E6E6E6;stop-opacity:0.0475"/>
		<stop  offset="0.5744" style="stop-color:#D1D1D1;stop-opacity:0.0574"/>
		<stop  offset="0.6652" style="stop-color:#B7B7B7;stop-opacity:0.0665"/>
		<stop  offset="0.7498" style="stop-color:#979797;stop-opacity:0.075"/>
		<stop  offset="0.8297" style="stop-color:#707070;stop-opacity:0.083"/>
		<stop  offset="0.9057" style="stop-color:#444444;stop-opacity:0.0906"/>
		<stop  offset="0.9761" style="stop-color:#121212;stop-opacity:0.0976"/>
		<stop  offset="1" style="stop-color:#000000;stop-opacity:0.1"/>
	</linearGradient>
	<polygon fill="url(#SVGID_2_)" points="26,2 25,2 9,2 9,35 34,35 34,11 34,10 	"/>
	<linearGradient id="SVGID_3_" gradientUnits="userSpaceOnUse" x1="20" y1="37.9063" x2="20" y2="35.0875">
		<stop  offset="0" style="stop-color:#828282;stop-opacity:0"/>
		<stop  offset="0.2812" style="stop-color:#7F7F7F;stop-opacity:0.0281"/>
		<stop  offset="0.4503" style="stop-color:#777777;stop-opacity:0.045"/>
		<stop  offset="0.5899" style="stop-color:#696969;stop-opacity:0.059"/>
		<stop  offset="0.7133" style="stop-color:#545454;stop-opacity:0.0713"/>
		<stop  offset="0.8259" style="stop-color:#3A3A3A;stop-opacity:0.0826"/>
		<stop  offset="0.9294" style="stop-color:#1A1A1A;stop-opacity:0.0929"/>
		<stop  offset="1" style="stop-color:#000000;stop-opacity:0.1"/>
	</linearGradient>
	<rect x="9" y="35" fill="url(#SVGID_3_)" width="22" height="3"/>
	<linearGradient id="SVGID_4_" gradientUnits="userSpaceOnUse" x1="29" y1="13.9063" x2="29" y2="11.0875">
		<stop  offset="0" style="stop-color:#828282;stop-opacity:0"/>
		<stop  offset="0.2812" style="stop-color:#7F7F7F;stop-opacity:0.0281"/>
		<stop  offset="0.4503" style="stop-color:#777777;stop-opacity:0.045"/>
		<stop  offset="0.5899" style="stop-color:#696969;stop-opacity:0.059"/>
		<stop  offset="0.7133" style="stop-color:#545454;stop-opacity:0.0713"/>
		<stop  offset="0.8259" style="stop-color:#3A3A3A;stop-opacity:0.0826"/>
		<stop  offset="0.9294" style="stop-color:#1A1A1A;stop-opacity:0.0929"/>
		<stop  offset="1" style="stop-color:#000000;stop-opacity:0.1"/>
	</linearGradient>
	<rect x="25" y="11" fill="url(#SVGID_4_)" width="8" height="3"/>
</g>
</svg>

<svg id="a5e6a57c-401e-424e-9221-142d9d583165" data-name="ICONS" xmlns="http://www.w3.org/2000/svg" xmlns:xlink="http://www.w3.org/1999/xlink" viewBox="0 0 40 40"><defs><linearGradient id="fe54c445-3da3-46eb-8252-737ba7fd3073" x1="-7383.9265" y1="10.52642" x2="-7409.41236" y2="43.14683" gradientTransform="matrix(-1, 0, 0, 1, -7385, 0)" gradientUnits="userSpaceOnUse"><stop offset="0" stop-color="#fff" stop-opacity="0"/><stop offset="0.86247" stop-color="#5e5e5e" stop-opacity="0.06315"/><stop offset="1" stop-opacity="0.1"/></linearGradient><linearGradient id="f4466e4b-af46-4e05-b653-9d645e51488d" x1="6.81648" y1="3.70595" x2="32.30234" y2="36.32636" gradientTransform="matrix(1, 0, 0, 1, 0, 0)" xlink:href="#fe54c445-3da3-46eb-8252-737ba7fd3073"/><linearGradient id="809b37fe-c178-4770-8536-aa698717e203" x1="20" y1="37.90625" x2="20" y2="35.08751" gradientUnits="userSpaceOnUse"><stop offset="0" stop-color="#828282" stop-opacity="0"/><stop offset="0.86247" stop-color="#303030" stop-opacity="0.06315"/><stop offset="1" stop-opacity="0.1"/></linearGradient><linearGradient id="3aa5d54f-6da3-4bff-9004-9b1f81dfec7f" x1="29" y1="13.90625" x2="29" y2="11.08751" xlink:href="#809b37fe-c178-4770-8536-aa698717e203"/></defs><title>FileTypeIcons_Master_All_NEW</title><polygon points="30 37 7 37 7 6 21.188 6 25 12 30 22.5 30 37" fill="#fff"/><polygon points="33 34 10 34 10 3 26 3 30 7 33 10 33 34" fill="#fff"/><path d="M26,2H9V5H6V38H31V35h3V10Zm0,1.5L32.5,10H26ZM30,37H7V6H9V35H30Zm3-3H10V3H25v8h8Z" fill="#949494"/><polygon points="9 5 9 35 30 35 31 35 31 38 6 38 6 5 9 5" fill="url(#fe54c445-3da3-46eb-8252-737ba7fd3073)"/><polygon points="26 2 25 2 9 2 9 35 34 35 34 11 34 10 26 2" fill="url(#f4466e4b-af46-4e05-b653-9d645e51488d)"/><rect x="9" y="35" width="22" height="3" fill="url(#809b37fe-c178-4770-8536-aa698717e203)"/><rect x="25" y="11" width="8" height="3" fill="url(#3aa5d54f-6da3-4bff-9004-9b1f81dfec7f)"/></svg>
